X:28
T:Kak po logu
O:russia
C:SU
M:2/4
L:1/8
Q:1/4=117
K:Cm
V:1
"Cm" G2 G2 |"Fm" G2 G2 |"G" F2 "Cm" E2 |"Bb" F4 |
"Gm" G3 F|"Cm" C4 |G2 G2 |"Fm" G2 G2 |
"G" F2 "Cm" E2 |"Bb" F4 |"Gm" G3 F|"Cm" C G,=A, =B,|
C/G,/ =A,/=B,/C/D/ E/F/  |:"Cm" C2 G2 |E2 C2 |"Fm" F2 G2 |
"Gm" G3 F|"Cm" C4 |C2 G2 |E2 C2 |
"Fm" F2 G2 |"Gm" G3 F|"Cm" C4 |"Cm" G2 G2 |
"Fm" G2 G2 |"G" F2 "Cm" E2 |"Bb" F4 |"Gm" G3 F|
"Cm" C4 |G2 G2 |"Fm" G2 G2 |"G" F2 "Cm" E2 |
"Bb" F4 |"Gm" G3 F|"Cm" (C4 |C4) :|
V:2          %2e stem
.z4  |:E2 E2 |G2 E2 |G2 c2 |
B3 G|E4 |E2 E2 |G2 E2 |
D2 F2 |E3 d|c4 |[E2c2][E2c2]|
[F2c2][E2c2]|[D2d2][C2c2]|[D4B4]|[B3D3][dD]|
[c4E4]|[e2C4]d2 |[c2C4]e2 |[d2D2][c2C2]|
[B4D4 d4]|[B3d3 D4][Ge]|[(E4G4 c4]|[E4)G4 c4]:|
